X: 1
T: Solemn Symphony
M: 4/4
L: 1/4
Q: 1/4=120
K: C
V:1
%%MIDI gchord b2b2
%%MIDI program 1
%%MIDI chordprog 48
%%MIDI bassprog 45
| "C" E2 G2 | "F" F2 A2 | "G" G2 B2 | "C" E4 | % measure 1-4
%%MIDI program 1
%%MIDI chordprog 48
%%MIDI bassprog 45
| "Dm" F2 D2 | "G" G/2F/2 E2 D | "C" E2 G2 | "C" C4 | % measure 5-8
%%MIDI program 1
%%MIDI chordprog 49
%%MIDI bassprog 45
| "Am" A2 c2 | "Dm" d2 A2 | "G" B2 G2 | "C" E4 | % measure 9-12
%%MIDI program 1
%%MIDI chordprog 48
%%MIDI bassprog 45
| "C" E2 G2 | "G" G2 B2 | "Dm" F2 D2 | "C" C4 | % measure 13-16